app/assets/img/ic-print-gray.svg

<svg fill="none" height="39" viewBox="0 0 34 39" width="34" xmlns="http://www.w3.org/2000/svg"><g fill="#000" fill-opacity=".38"><path d="m33.6666 17.3334c0-2.7566-2.2433-5-5-5h-3.3333v3.3334h-16.66671v-3.3334h-3.33333c-2.75667 0-5.000008 2.2434-5.000008 5v15h5.000008v6.6667h23.33334v-6.6667h5zm-8.3333 18.3334h-16.66671v-6.6667h16.66671zm5-6.6667h-1.6667v-3.3333h-23.33334v3.3333h-1.66667v-11.6667c0-.92.74833-1.6666 1.66667-1.6666v3.3333h23.33334v-3.3333c.9183 0 1.6667.7466 1.6667 1.6666z"/><path d="m8.66659 4.00008h16.66671v6.66672h3.3333v-10.000052h-23.33334v10.000052h3.33333z"/><path d="m26.5118 21.1549c.6508.6509.6508 1.7062 0 2.3571-.6509.6508-1.7062.6508-2.357 0-.6509-.6509-.6509-1.7062 0-2.3571.6508-.6508 1.7061-.6508 2.357 0z"/></g></svg>

<svg width="34" height="39" viewBox="0 0 34 39" fill="none" xmlns="http://www.w3.org/2000/svg">
<path d="M33.6666 17.3334C33.6666 14.5768 31.4233 12.3334 28.6666 12.3334H25.3333V15.6668H8.66659V12.3334H5.33326C2.57659 12.3334 0.333252 14.5768 0.333252 17.3334V32.3334H5.33326V39.0001H28.6666V32.3334H33.6666V17.3334ZM25.3333 35.6668H8.66659V29.0001H25.3333V35.6668ZM30.3333 29.0001H28.6666V25.6668H5.33326V29.0001H3.66659V17.3334C3.66659 16.4134 4.41492 15.6668 5.33326 15.6668V19.0001H28.6666V15.6668C29.5849 15.6668 30.3333 16.4134 30.3333 17.3334V29.0001Z" fill="black" fill-opacity="0.38"/>
<path d="M8.66659 4.00008H25.3333V10.6668H28.6666V0.666748H5.33326V10.6668H8.66659V4.00008Z" fill="black" fill-opacity="0.38"/>
<path d="M26.5118 21.1549C27.1626 21.8058 27.1626 22.8611 26.5118 23.512C25.8609 24.1628 24.8056 24.1628 24.1548 23.512C23.5039 22.8611 23.5039 21.8058 24.1548 21.1549C24.8056 20.5041 25.8609 20.5041 26.5118 21.1549Z" fill="black" fill-opacity="0.38"/>
</svg>
